assets/gcptrafficdirector/original.svg

<svg height="24" width="24" xmlns="http://www.w3.org/2000/svg"><path d="m9 15a6.22 6.22 0 0 0 -4-5v-2a8.22 8.22 0 0 1 6 7z" fill="#4285f4"/><path d="m5 7v4l-3-2zm6 8.39v2.61h-2v-2.62" fill="#4285f4"/><path d="m9 5h-1l2-3 2 3h-1v13h-2z" fill="#669df6"/><path d="m19 17v-4l3 2zm-6-8.38v-2.62h2v2.62" fill="#aecbfa"/><path d="m15 19h1l-2 3-2-3h1v-13h2z" fill="#669df6"/><path d="m13 6h2v2.43a6.13 6.13 0 0 0 4 5.57v2a8.15 8.15 0 0 1 -6-7.58" fill="#aecbfa"/></svg>

<svg xmlns="http://www.w3.org/2000/svg" width="24" height="24"><path fill="#4285f4" d="M9 15a6.22 6.22 0 0 0-4-5V8a8.22 8.22 0 0 1 6 7zM5 7v4L2 9zm6 8.39V18H9v-2.62"/><path fill="#669df6" d="M9 5H8l2-3 2 3h-1v13H9z"/><path fill="#aecbfa" d="M19 17v-4l3 2zm-6-8.38V6h2v2.62"/><path fill="#669df6" d="M15 19h1l-2 3-2-3h1V6h2z"/><path fill="#aecbfa" d="M13 6h2v2.43A6.13 6.13 0 0 0 19 14v2a8.15 8.15 0 0 1-6-7.58"/></svg>
